X: 
T: Roland's Return
M: 6/8
L: 1/8
R: jig
K: Emin
|: E/F/ |\
GFG BGG | dGG BGG | A2 B cde | gfe dBA |
GFG BGG | dGG BAG | A2 B cBA | BGE E2 :|
(3B/c/^d/ |\
e2 f gfe | f^dB Bcd | e2 f gfe | bag agf |
e2 f gfe | f^dB BAG | A2 B cBA | BGE E2 B |
e2 f gfe | f^dB Bcd | e2 f gfg | bge efg |
bag agf | gfe dBG | a2 B cBA | BGE E2 |]
